X: 140
T:Up In The Air
M:6/8
L:1/8
F:http://blackrosetheband.googlepages.com/ABCTUNES.ABC May 2009
C:Kevin Burke/Micheal O' Domhnaill
R:Jig
K:Bm
|:"Bm"FBB BAB|"A"c3 AFE|"G(Bm)"FBB BAB|"A"cBA B3| "Bm"FBB BAB|"A"cBc ABc|"G"def "A"ecA|1 "Bm"FBB B2A:|2 "Bm"FBB B3|
|:"Bm"dcd "A"ede|"G"fdB BAB|dcd ede|"Em"fdA B3| "Bm"dcd "A"ede|"G"fdB def|"Em"gfe dBA|"G"FBB B2A:|

